!!!COA:	Josquin des Prez
!!!CDT:	~1450-1521/08/27
!!!OPR:	Missa Ad fugam
!!!ONM:	5
!!!OTL:	Agnus Dei (version I)
!!!AGN:	Mass; Agnus Dei
!!!SCT:	NJE 12.1
!!!SCA:	New Josquin Edition 12.1
!!!voices:	4
!!!voices-OPR:	4
**kern	**kern	**kern	**kern
*staff4	*staff3	*staff2	*staff1
*Ivox	*Ivox	*Ivox	*Ivox
*I"Bassus	*I"Tenor	*I"Altus	*I"Superius
*I'B	*I'T	*I'A	*I'S
*>[A,B,A]	*>[A,B,A]	*>[A,B,A]	*>[A,B,A]
*>A	*>A	*>A	*>A
*clefF4	*clefGv2	*clefGv2	*clefG2
*k[b-]	*k[b-]	*k[b-]	*k[]
*M3/1	*M3/1	*M3/1	*M3/1
*met(O)	*met(O)	*met(O)	*met(O)
!!section: Agnus Dei I/III
!!!OMD: Agnus Dei I/III
=1-	=1-	=1-	=1-
!	!	!	!LO:TX:Z=8:t=[Canon at the lower fifth]
0G	0.r	1.G	0g
.	.	2A/	.
1E	.	2.B-\	1g
.	.	4c\	.
=2	=2	=2	=2
1.F	0c	0A	2a/
.	.	.	1a
2G\	.	.	4g/
.	.	.	4f/
1A	1c	2r	1e
.	.	2A/	.
=3	=3	=3	=3
2r	2d\	2.B-\	1d
1D	1d	.	.
.	.	4A/	.
.	.	2F/	1r
1G	4c\	2G/	.
.	4B-\	.	.
.	1A	1D	1a
2F#i\	.	.	.
=4	=4	=4	=4
1G	1G	2r	1b-i
.	.	1d	.
2D\	1r	.	2a/
1F	.	2c\	1a
.	1d	2A/	.
4E\	.	2B-\	2g/
4D\	.	.	.
=5	=5	=5	=5
1C	1e-i	3c\V	1g
.	.	3G/	.
.	.	3A/Z	.
1.BB-	2d\	0B-	1r
.	1d	.	.
.	.	.	2f/
2BB-/	2c\	.	2g/
=6	=6	=6	=6
0F	1c	2.A/	0a
.	.	4B-\	.
.	1r	2c\	.
.	.	2F/	.
1E	2B-\	1G	1g
.	2c\	.	.
=7	=7	=7	=7
0D	0d	0A	2f/
.	.	.	2.a/
.	.	.	4g/
.	.	.	2f/
1A	1c	2r	1e
.	.	2c\	.
=8	=8	=8	=8
1B-	2B-\	2d\	2d/
.	2.d\	2G/	2.b-i\
1G	.	2.B-\	.
.	4c\	.	4a/
.	2B-\	.	1g
.	.	4c\	.
1D	1A	1d	.
.	.	.	2f#i/
=9	=9	=9	=9
2E-i\	2G/	2B-\	0g
2C/	2.e-i\	2c\	.
2.E-i\	.	2G/	.
.	4d\	.	.
.	1c	2c\	.
4F\	.	.	.
1D	.	2d\	1r
.	2Bni\	2f\	.
=10	=10	=10	=10
1.C	0c	1.e	0.g
2D\	.	2e\	.
1E	1r	1e	.
=11	=11	=11	=11
1.F	0.c	1c	1.a
.	.	1f	.
2G\	.	.	2b\
1A	.	2e\	1cc
.	.	2f\	.
=12	=12	=12	=12
2.G\	1.d	1g	1b
4F\	.	.	.
2D\	.	2.f\	2a/
1F	2e\	.	1a
.	.	8e\L	.
.	.	8d\J	.
.	1f	[1c	.
2F\	.	.	4g/
.	.	.	4f/
=13	=13	=13	=13
1C	1e	1c]	1g
1D	2d\	1A	0f
.	1d	.	.
1BB-	.	2.B-\	.
.	4c\	.	.
.	4B-\	8A/L	.
.	.	8G/J	.
=14	=14	=14	=14
1C	1c	2G/	1e
.	.	1g	.
0G	0B-	.	1r
.	.	4f\	.
.	.	4e\	.
.	.	2.d\	1g
.	.	4e\	.
=15	=15	=15	=15
1.D	1A	0f	0.a
.	1r	.	.
2.F\	.	.	.
.	1c	2.f\	.
4G\	.	.	.
2A\	.	.	.
.	.	4e\	.
=16	=16	=16	=16
0G	0.d	2.g\	1b
.	.	4f\	.
.	.	2d\	1b
.	.	2G/	.
1F	.	1A	1a
=17	=17	=17	=17
2.E\	1e	1Bni	2.g/
4F\	.	.	4a/
2G\	1e	1r	2b\
1A	.	.	1cc
.	1d	1r	.
2G\	.	.	2b\
=18	=18	=18	=18
2.A\	2.c\	0.r	1cc
4G\	4d\	.	.
2E\	2e\	.	2g/
2D\	1f	.	1a
1E	.	.	.
.	2e\	.	2g/
=19	=19	=19	=19
2.F\	1f	0.r	1a
4G\	.	.	.
2A\	2c\	.	2r
2D\	1d	.	2.a/
1A	.	.	.
.	.	.	4g/
.	2c\	.	2a/
=20	=20	=20	=20
0.D	1d	0A	0f
.	2r	.	.
.	2.d\	.	.
.	.	1A	1f
.	4c\	.	.
.	2d\	.	.
=21	=21	=21	=21
0.G	0B-	2G/	0d
.	.	1g	.
.	.	4f\	.
.	.	4e\	.
.	1B-	[1d	[1dd
=22	=22	=22	=22
0d	0G	2d\]	1dd]
.	.	2.g\	.
.	.	.	0b
.	.	4f\	.
.	.	2g\	.
1G	[1g	1d	.
=23	=23	=23	=23
1E	1g]	1G	0g
0C	0e	0c	.
.	.	.	1g
=24	=24	=24	=24
0F	0c	0A	1.a
.	.	.	2.cc\
1A	1c	1r	.
.	.	.	4b\
.	.	.	4a/
.	.	.	4g/
=25	=25	=25	=25
0.D	1.d	1.A	1f
.	.	.	0a
.	2.f\	2.d\	.
.	4e\	4c\	.
.	4d\	[2A/	.
.	4c\	.	.
=26	=26	=26	=26
1E	1B-	2A/]	1g
.	.	2G/	.
1D	0d	0A	0f
2.F\	.	.	.
4G\	.	.	.
=27	=27	=27	=27
1A	1c	0.r	2.e/
.	.	.	4f/
2r	0B-	.	2g/
2D\	.	.	1a
1E	.	.	.
.	.	.	2g/
=28	=28	=28	=28
2.F\	2.A/	1f	1a
4G\	4B-\	.	.
2A\	2c\	2e\	1r
2D\	1d	2d\	.
1A	.	2.e\	1cc
.	2c\	.	.
.	.	4f\	.
=29	=29	=29	=29
1G	1d	1g	1b
1F	1r	1c	0a
1D	1f	1d	.
=30	=30	=30	=30
2.E\	1e	1G	1g
8D\L	.	.	.
8E\J	.	.	.
2F\	0d	1r	2a/
2.G\	.	.	1b
.	.	1g	.
4F\	.	.	.
2G\	.	.	4a/
.	.	.	4b\
=31	=31	=31	=31
1A	1c	2e\	1cc
.	.	2f\	.
0G	2d\	0g	0b
.	1e	.	.
.	4d\	.	.
.	4e\	.	.
=32	=32	=32	=32
1F	1f	1c	1a
0A	0e	1r	1r
.	.	1r	1cc
=33	=33	=33	=33
2D\	1d	2A/	1dd
2.G\	.	2B-\	.
.	1r	1G	2b\
4F\	.	.	.
2E\	.	.	2g/
1D	1f	1d	1a
=34	=34	=34	=34
2E\	1g	2B-\	0g
2.C/	.	2c\	.
.	2e\	2G/	.
4D\	.	.	.
2E\	2c\	1c	.
2F\	1d	.	1r
2G\	.	2Bni\	.
=35	=35	=35	=35
2.C/	0c	2c\	1.g
.	.	1g	.
4D\	.	.	.
2E\	.	.	.
1F	.	4f\	2a/
.	.	4e\	.
.	1r	1d	1b
2G\	.	.	.
=36	=36	=36	=36
1.A	1.c	1r	1.cc
.	.	1r	.
2F\	2d\	.	4b-i\
.	.	.	4a/
1G	1e	1B-	1b-i
=37	=37	=37	=37
0F	1.f	0.c	0a
.	4e-i\	.	.
.	4d\	.	.
1C	1e-i	.	1g
=38	=38	=38	=38
2r	0d	0f	2.dd\
2.D\	.	.	.
.	.	.	4cc\
.	.	.	2b-i\
4E\	.	.	.
4F\	.	.	2.a/
4G\	.	.	.
1A	1c	2e\	.
.	.	.	4b-i\
.	.	2c\	2cc\
=39	=39	=39	=39
1.G	2.g\	1d	1b-i
.	4f\	.	.
.	2e-i\	2B-\	1r
2G\	2.d\	2G/	.
1D	.	2.A/	1r
.	4e-i\	.	.
.	2f\	.	.
.	.	4B-\	.
=40	=40	=40	=40
1C	1e-i	1.c	2r
.	.	.	2g/
1F	1r	.	1a
.	.	1.d	.
1G	1r	.	1b
=41	=41	=41	=41
1A	2r	1c	1cc
.	2c\	.	.
2G\	1d	1r	2b\
2F\	.	.	1a
1E	1e	1r	.
.	.	.	2g/
=42	=42	=42	=42
1D	1f	2.d\	1a
.	.	4c\	.
2E\	2e\	2B-\	2g/
2F\	1d	2A/	2f/
2G\	.	2r	1e
2A\	2c#i\	2e\	.
=43	=43	=43	=43
2D\	1d	1.f	2d/
1F	.	.	2.a/
.	2c\	.	.
.	.	.	4g/
2G\	2B-\	2e\	1g
1D	1A	1d	.
.	.	.	2f#i/
=44	=44	=44	=44
2r	0.Gl	0.dl	0.gl
2G\	.	.	.
2.B-\	.	.	.
4c\	.	.	.
*^	*	*	*
1Gl\	1dl/	.	.	.
*v	*v	*	*	*
!!LO:LB:i:g=z
=45||	=45||	=45||	=45||
*>B	*>B	*>B	*>B
*clefF4	*clefGv2	*clefGv2	*clefG2
*k[b-]	*k[b-]	*k[b-]	*k[]
*M2/1	*M2/1	*M2/1	*M2/1
*met(C|)	*met(C|)	*met(C|)	*met(C|)
!!section: Agnus Dei II
!!!OMD: Agnus Dei II
0G	0r	0r	1.d
.	.	.	2e/
=46	=46	=46	=46
1A	1r	0r	1f
1B-	[1G	.	[1g
=47	=47	=47	=47
0G	2G/]	0r	2g/]
.	2A/	.	2f/
.	1B-	.	1d
=48	=48	=48	=48
1.C	1.c	0r	1r
.	.	.	[1g
2D\	2B-\	.	.
=49	=49	=49	=49
2E\	1G	0r	2g/]
2F\	.	.	2a/
1G	1r	.	1b-i
=50	=50	=50	=50
1.A	1.c	0r	1.cc
2B-\	2d\	.	2b-i\
=51	=51	=51	=51
1c	1e	0r	1g
[1F	[1f	.	[1a
=52	=52	=52	=52
2F\]	2f\]	0r	2a/]
2G\	2e\	.	2g/
1A	1c	.	1e
=53	=53	=53	=53
2.D\	1.d	0r	1f
4E\	.	.	.
2F\	.	.	1d
[2G\	2c\	.	.
=54	=54	=54	=54
2G\]	1A	0r	1r
2F#i\	.	.	.
1G	1B-	.	1dd
=55	=55	=55	=55
1r	1G	0r	1.dd
[1G	1r	.	.
.	.	.	[2b\
=56	=56	=56	=56
2G\]	1g	0r	2b\]
1E	.	.	2g/
.	[1g	.	1g
2C/	.	.	.
=57	=57	=57	=57
1.C	2g\]	0r	1r
.	1e	.	.
.	.	.	[1g
[2E\	2c\	.	.
=58	=58	=58	=58
2E\]	1c	0r	2g/]
2F\	.	.	2a/
1G	1r	.	1b
=59	=59	=59	=59
1A	1.c	0r	2cc\
.	.	.	1a
1F	.	.	.
.	2d\	.	4g/
.	.	.	4f/
=60	=60	=60	=60
1C	1e	0r	2g/
.	.	.	4f/
.	.	.	4e/
1r	2f\	.	2.d/
.	[2d\	.	.
.	.	.	4e/
=61	=61	=61	=61
0r	2d\]	0r	2f/
.	4c\	.	1g
.	4B-\	.	.
.	2c\	.	.
.	4B-\	.	2a/
.	4A/	.	.
=62	=62	=62	=62
2.E\	2.G/	0r	1.b
4F\	4A/	.	.
2G\	2B-\	.	.
2E\	[2c\	.	2g/
=63	=63	=63	=63
1F	2c\]	0r	1a
.	2d\	.	.
1E	[1e	.	1g
=64	=64	=64	=64
1C	2e\]	0r	2r
.	2c\	.	1cc
1G	1d	.	.
.	.	.	2b\
=65	=65	=65	=65
1A	1c	0r	2a/
.	.	.	2.cc\
1F	2r	.	.
.	.	.	4b\
.	[2f\	.	2a/
=66	=66	=66	=66
1c	2f\]	0r	1g
.	2e\	.	.
[1F	2d\	.	2f/
.	[2f\	.	[2d/
=67	=67	=67	=67
2F\]	4f\]	0r	4d/]
.	4e\	.	4e/
2G\	2d\	.	2f/
1A	1c	.	1e
=68	=68	=68	=68
1B-	2B-\	0r	2r
.	2.G/	.	2d/
1G	.	.	2e/
.	4A/	.	.
.	2B-\	.	[2g/
=69	=69	=69	=69
1D	1A	0r	2g/]
.	.	.	2f#i/
1E	2r	.	1g
.	2G/	.	.
=70	=70	=70	=70
1F	2A/	0r	1r
.	1c	.	.
1G	.	.	1g
.	2B-\	.	.
=71	=71	=71	=71
1C	1c	0r	2a/
.	.	.	1cc
1G	1r	.	.
.	.	.	2b\
=72	=72	=72	=72
2A\	1c	0r	1cc
1F	.	.	.
.	2d\	.	1r
2A\	[2f\	.	.
=73	=73	=73	=73
1G	2f\]	0r	1b
.	2e\	.	.
2.F\	1f	.	2.a/
4G\	.	.	4b\
=74	=74	=74	=74
2A\	1r	0r	2cc\
2B-\	.	.	1dd
2G\	1e	.	.
2A\	.	.	2cc#i\
=75	=75	=75	=75
2D\	2.d\	0r	1.dd
2d\	.	.	.
.	4e\	.	.
2B-\	2f\	.	.
2G\	[2g\	.	4cc\
.	.	.	4b\
=76	=76	=76	=76
1d	2g\]	0r	1a
.	2f#i\	.	.
2.G\	[1g	.	1b
4A\	.	.	.
=77	=77	=77	=77
2B-\	2g\]	0r	1g
1c	4f\	.	.
.	4e\	.	.
.	1d	.	1r
2Bni\	.	.	.
=78	=78	=78	=78
1c	1e	0r	1g
1C	1c	.	1g
=79	=79	=79	=79
1F	1r	0r	1a
2E\	1c	.	2g/
2F\	.	.	2f/
=80	=80	=80	=80
1C	1c	0r	1e
1G	1d	.	1d
=81	=81	=81	=81
1r	2c\	0r	2e/
.	2B-\	.	1g
1D	1A	.	.
.	.	.	2f#i/
=82	=82	=82	=82
1.E	[0Gl	0r	[0gl
2C/	.	.	.
=83	=83	=83	=83
0Cl	0G]	0r	0g]
!!LO:TX:i:Y=40:rj:t=Agnus tertium ut supra
==	==	==	==
*-	*-	*-	*-
!!!RDF**kern: l=long note in original notation
!!!RDF**kern: i=editorial accidental
!!!RDF**kern: V=start of tuplet marker
!!!RDF**kern: Z=end of tuplet marker
!!!ENC:	Jesse Rodin; Victoria Chang 2012/02/11
!!!END:	2012/02/11/
!!!EED:	Jesse Rodin
!!!EEV:	2012/08/29/
!!attribution-level@Jos: 4 (questionable)
!!!ONB:	Translated from MusicXML and edited on 2012/08/29/ by Craig Sapp
!!muse2ps: T^@{OPR}^u^@{ONM}{. }@{OTL}^C^@{COA}?\n@{SCT}^i2I150v85,85,85,150Q16
